Assets/Social Icons/Twitter.svg

<svg width="24" height="24" viewBox="0 0 24 24" fill="none" xmlns="http://www.w3.org/2000/svg">
<path fill-rule="evenodd" clip-rule="evenodd" d="M0 12C0 5.3726 5.3726 0 12 0C18.6274 0 24 5.3726 24 12C24 18.6274 18.6274 24 12 24C5.3726 24 0 18.6274 0 12ZM11.6406 9.75375L11.6658 10.169L11.2461 10.1181C9.71845 9.92325 8.38385 9.26225 7.25065 8.15215L6.6967 7.60135L6.554 8.0081C6.2518 8.9148 6.44485 9.8724 7.0744 10.5164C7.41015 10.8723 7.3346 10.9232 6.75545 10.7113C6.554 10.6435 6.3777 10.5927 6.36095 10.6181C6.3022 10.6774 6.5036 11.4486 6.6631 11.7536C6.88135 12.1773 7.3262 12.5925 7.81305 12.8383L8.22435 13.0332L7.7375 13.0416C7.26745 13.0416 7.25065 13.0501 7.30105 13.2281C7.4689 13.7789 8.132 14.3636 8.87065 14.6179L9.3911 14.7958L8.9378 15.0669C8.2663 15.4567 7.4773 15.6771 6.6883 15.694C6.31055 15.7025 6 15.7364 6 15.7619C6 15.8465 7.02405 16.3211 7.62 16.5075C9.40785 17.0583 11.5315 16.8211 13.1263 15.8805C14.2594 15.211 15.3926 13.8806 15.9214 12.5926C16.2068 11.9061 16.4922 10.652 16.4922 10.0504C16.4922 9.66055 16.5173 9.6097 16.9874 9.1436C17.2644 8.87245 17.5246 8.57585 17.575 8.4911C17.6589 8.3301 17.6506 8.3301 17.2225 8.47415C16.509 8.7284 16.4082 8.6945 16.7608 8.31315C17.021 8.042 17.3316 7.5505 17.3316 7.40645C17.3316 7.381 17.2057 7.4234 17.063 7.49965C16.9119 7.5844 16.5762 7.7115 16.3243 7.7878L15.871 7.93185L15.4598 7.6522C15.2332 7.49965 14.9141 7.3302 14.7463 7.27935C14.3182 7.1607 13.6635 7.17765 13.2774 7.31325C12.2282 7.69455 11.5651 8.67755 11.6406 9.75375Z" fill="white"/>
</svg>

<svg width="24" height="24" fill="none" xmlns="http://www.w3.org/2000/svg"><path fill-rule="evenodd" clip-rule="evenodd" d="M0 12C0 5.373 5.373 0 12 0s12 5.373 12 12-5.373 12-12 12S0 18.627 0 12zm11.64-2.246l.026.415-.42-.05c-1.528-.196-2.862-.857-3.995-1.967l-.554-.55-.143.406c-.302.907-.11 1.864.52 2.508.336.356.26.407-.319.195-.201-.068-.377-.118-.394-.093-.059.06.143.83.302 1.136.218.423.663.838 1.15 1.084l.411.195-.487.009c-.47 0-.486.008-.436.186.168.55.831 1.136 1.57 1.39l.52.178-.453.27c-.672.39-1.46.611-2.25.628-.377.008-.688.042-.688.068 0 .085 1.024.56 1.62.745 1.788.551 3.911.314 5.506-.627 1.133-.669 2.267-2 2.795-3.287.286-.687.571-1.941.571-2.543 0-.39.025-.44.495-.906.277-.272.538-.568.588-.653.084-.16.076-.16-.352-.017-.714.254-.815.22-.462-.16.26-.272.57-.763.57-.908 0-.025-.125.017-.268.094a4.683 4.683 0 01-.739.288l-.453.144-.411-.28c-.227-.152-.546-.322-.714-.373-.428-.118-1.082-.101-1.469.034-1.049.382-1.712 1.365-1.636 2.44z" fill="#fff"/></svg>
